!!!OTL: Three Blind Mice
!!!COM: unknown
!!!ODT: unknown
!!!YOR: The Folksong Fake Book
!!!YOY: 2000
!!!AST: Children's song
!!!YEC: Brian Luke, 2001
**kern	**harm
*k[f#c#]	*k[f#c#]
*M6/8	*M6/8
*D:	*D:
*>A	*>A
=1	=1
4.f#	I
4.e	V7
=2	=2
2.d	I
=3	=3
4.f#	.
4.e	V7
=4	=4
2.d	I
=5	=5
4.a	.
4g	V7
8g	.
=6	=6
2.f#	I
=7	=7
4.a	.
4g	V7
8g	.
=8	=8
[4.f#	I
4f#]	.
8a	.
=9	=9
4dd	.
8dd	.
8cc#	V7
8b	.
8cc#	.
=10	=10
4dd	I
8a	.
4a	.
8a	.
=11	=11
8dd	.
8dd	.
8dd	.
8cc#	V7
8b	.
8cc#	.
=12	=12
4dd	I
8a	.
4a	.
8a	.
=13	=13
8dd	.
8dd	.
8dd	.
8cc#	V7
8b	.
8cc#	.
=14	=14
8dd	I
8a	.
8a	.
4a	.
8g	.
=15	=15
4.f#	.
4.e	V7
=16	=16
2.d	I;
*-	*-
